img/feature-timer.svg

<svg fill="none" height="31" viewBox="0 0 32 31" width="32" xmlns="http://www.w3.org/2000/svg"><ellipse cx="16" cy="15.5" fill="#151923" rx="16" ry="15.5"/><path d="m1 10-.894427 1.7889c-.0694279.1388-.105573.2919-.105573.4472v1.7639c0 .5523.447715 1 1 1h6c.55228 0 1-.4477 1-1v-3.4458c0-.3447-.17762-.66521-.47-.84795l-7.059999-4.4125c-.292381-.18274-.470001-.50321-.470001-.848v-3.44575c0-.552285.447715-1 1-1h6c.55228 0 1 .447715 1 1v1.76393c0 .15525-.03615.30836-.10557.44722l-.89443 1.78885" stroke="#fff" stroke-linecap="round" stroke-width="2" transform="translate(12 8)"/></svg>

<svg width="32" height="31" viewBox="0 0 32 31" fill="none" xmlns="http://www.w3.org/2000/svg">
<ellipse cx="16" cy="15.5" rx="16" ry="15.5" fill="#151923"/>
<path d="M1 10L0.105573 11.7889C0.0361451 11.9277 0 12.0808 0 12.2361V14C0 14.5523 0.447715 15 1 15H7C7.55228 15 8 14.5523 8 14V10.5542C8 10.2095 7.82238 9.88899 7.53 9.70625L0.470001 5.29375C0.17762 5.11101 0 4.79054 0 4.44575V1C0 0.447715 0.447715 0 1 0H7C7.55228 0 8 0.447715 8 1V2.76393C8 2.91918 7.96385 3.07229 7.89443 3.21115L7 5" transform="translate(12 8)" stroke="white" stroke-width="2" stroke-linecap="round"/>
</svg>
